X:340
T: New Widow Well Married
S: "Roche Collection of Traditional Irish Music" [II/27/266]
L: 1/8
M: 9/8
R: slip jig
K: Edor
g |: edB BAB GED | E2d d2B d2g |
edB BAB GED |1 E2e e2d efg :|2 E2e e2d e2d ||
B2g g2e fed | B2d d2B d2A |
B2g g2e fed | B2e e2d e2d |
B2g g2e fed | B2e e2d d2g |
edB BAB GED | E2e e2d efg |]
